X:1
T:Title
%%score { ( 1 3 ) | 2 }
L:1/8
M:4/4
K:Eb
V:1 treble nm="Grand Piano"
V:3 treble 
V:2 bass 
V:1
 z4 z2[Q:1/4=100] [EG][FA] | [GB]>[_G=A] [=GB][_Ac] [GB][EG][GB][Ge] | %2
 [EBd]>[EAc] [EAc][EA=B] [EAc]2 [DF][EG] | [FA]>[EG] [FA][GB] [Bd][Ac] [GB]>[FA] | [EG]6 [EG][FA] | %5
 [GB]>[_G=A] [=GB][_Ac] [GB]2 [Ge][Bd] |[M:9/8] c>=Bc d e2- edc | %7
[M:4/4] [GB]>[GB] [_G=A][=GB] [D_Ac][GB] [FA]>[DF] |[M:3/4] E6 |[M:1/4] B>=A |[M:4/4] B6 z2 | %11
[M:17/16] c/-c/-c/-c/-c/-c/-c/-c/-c-<c z/ z/ z/ z | %12
[M:4/4] [DF]>[_D=E] [=DF][_EG] [FA][EG][DFA][DAc] | [GB]6 [GB]2 | %14
 [Ge]>[Fd] [Ge][Af] [Ge]2 [GB][GB] |[M:9/8] c>=Bc d e2- edc | %16
[M:4/4] [GB]>[GB] [_G=A][=GB] [D_Ac][B,GB] [B,FA]>[A,DF] |[M:3/4] [G,E]6 |] %18
V:2
 z4 z2 [E,B,][E,B,] | [E,E]>[E,E] [E,E][E,E] [E,E][E,B,][E,E][E,E] | %2
 A,,>A,, A,,A,, A,,2 [B,,B,][B,,B,] | %3
 [B,,B,]>[B,,B,] [B,,B,][B,,B,] [B,,B,][B,,B,] [B,,B,]>[D,B,] | [E,B,]6 [E,B,][E,B,] | %5
 [E,E]>[E,E] [E,E][E,E] [E,E]2 [E,B,][K:treble][G,E] | %6
[M:9/8] [A,EA]>[A,EA][A,EA] [A,DA] [A,CA]2- [A,CA][A,EA][A,EA] | %7
[M:4/4][K:bass] [E,E]>[E,E] [E,E][E,E] B,,[B,,B,] [B,,B,]>[B,,A,] |[M:3/4] [E,G,]6 |[M:1/4] z2 | %10
[M:4/4] z2 [B,,F,]>[B,,F,] [E,G,]2 z2 | %11
[M:17/16] z/ z/ z [C,G,]>[C,G,][F,A,]-<[F,A,][F,B,D]3/2[E,B,E] | %12
[M:4/4] [B,,B,]>[B,,B,] [B,,B,][B,,B,] [B,,B,][B,,B,]B,,B,, | [E,E]6 [E,E]2 | %14
 [E,B,]>[E,B,] [E,B,][E,B,] [E,B,]2 [E,E][E,E] | %15
[M:9/8][K:treble] [A,EA]>[A,EA][A,EA] [A,DA] [A,CA]2- [A,CA][A,EA][A,EA] | %16
[M:4/4][K:bass] [E,E]>[E,E] [E,E][E,E] B,,B,, B,,>B,, |[M:3/4] E,6 |] %18
V:3
 x8 | x8 | x8 | x8 | x8 | x8 |[M:9/8] x9 |[M:4/4] x8 |[M:3/4] x6 |[M:1/4] x2 | %10
[M:4/4] z2 D>D E2 c>=B |[M:17/16] z/ z/ z =E>EF-<FA3/2G |[M:4/4] x8 | x8 | x8 |[M:9/8] x9 | %16
[M:4/4] x8 |[M:3/4] x6 |] %18

